app/dist/common/images/fti-consulting.svg

<svg height="18" width="18" xmlns="http://www.w3.org/2000/svg"><path d="m0 0h18v18h-18z" fill="#003763"/><path d="m10 9h1v5h1v-5h1v5h1v-6h-7v-1h7v-1h-9v-1h9v-1h-10v10h4v-5h1v5h1z" fill="#fff"/></svg>

<!-- by TradingView --><svg width="18" height="18" xmlns="http://www.w3.org/2000/svg"><path fill="#003763" d="M0 0h18v18H0z"/><path d="M10 9h1v5h1V9h1v5h1V8H7V7h7V6H5V5h9V4H4v10h4V9h1v5h1V9z" fill="#fff"/></svg>
